32x32/apps/mlgui.svg

<svg xmlns="http://www.w3.org/2000/svg" width="32" height="32" version="1">
 <path style="opacity:0.2" d="M 16.5,2 A 14.5,14.5 0 0 0 2,16.5 14.5,14.5 0 0 0 16.5,31 14.5,14.5 0 0 0 31,16.5 14.5,14.5 0 0 0 16.5,2 Z m 3.351562,3.5019531 a 11.5,11.5 0 0 1 5.792969,4.0410157 C 24.659563,10.162262 24,11.250621 24,12.5 c 0,1.932997 1.567003,3.5 3.5,3.5 0.163973,0 0.322496,-0.0192 0.480469,-0.04102 A 11.5,11.5 0 0 1 28,16.5 11.5,11.5 0 0 1 25.970703,23.021484 C 25.337638,22.390394 24.464519,22 23.5,22 21.567003,22 20,23.567003 20,25.5 c 0,0.650782 0.188649,1.253408 0.498047,1.775391 A 11.5,11.5 0 0 1 16.5,28 11.5,11.5 0 0 1 12.503906,27.267578 C 12.810852,26.747088 13,26.147992 13,25.5 13,23.567003 11.432997,22 9.5,22 8.5395328,22 7.6714765,22.389205 7.0390625,23.015625 A 11.5,11.5 0 0 1 5,16.5 11.5,11.5 0 0 1 5.0273438,15.960938 C 5.1824011,15.981938 5.3391847,16 5.5,16 7.4329966,16 9,14.432997 9,12.5 9,11.252182 8.342288,10.164632 7.359375,9.5449219 A 11.5,11.5 0 0 1 13.150391,5.5097656 3.5,3.5 0 0 0 16.5,8 3.5,3.5 0 0 0 19.851562,5.5019531 Z"/>
 <path style="fill:#7d7d7d" d="M 16.5 1 A 14.5 14.5 0 0 0 2 15.5 A 14.5 14.5 0 0 0 16.5 30 A 14.5 14.5 0 0 0 31 15.5 A 14.5 14.5 0 0 0 16.5 1 z M 19.851562 4.5019531 A 11.5 11.5 0 0 1 25.644531 8.5429688 C 24.659563 9.1622617 24 10.250621 24 11.5 C 24 13.432997 25.567003 15 27.5 15 C 27.663973 15 27.822496 14.980803 27.980469 14.958984 A 11.5 11.5 0 0 1 28 15.5 A 11.5 11.5 0 0 1 25.970703 22.021484 C 25.337638 21.390394 24.464519 21 23.5 21 C 21.567003 21 20 22.567003 20 24.5 C 20 25.150782 20.188649 25.753408 20.498047 26.275391 A 11.5 11.5 0 0 1 16.5 27 A 11.5 11.5 0 0 1 12.503906 26.267578 C 12.810852 25.747088 13 25.147992 13 24.5 C 13 22.567003 11.432997 21 9.5 21 C 8.5395328 21 7.6714765 21.389205 7.0390625 22.015625 A 11.5 11.5 0 0 1 5 15.5 A 11.5 11.5 0 0 1 5.0273438 14.960938 C 5.1824011 14.981938 5.3391847 15 5.5 15 C 7.4329966 15 9 13.432997 9 11.5 C 9 10.252182 8.342288 9.1646316 7.359375 8.5449219 A 11.5 11.5 0 0 1 13.150391 4.5097656 A 3.5 3.5 0 0 0 16.5 7 A 3.5 3.5 0 0 0 19.851562 4.5019531 z"/>
 <path style="opacity:0.1;fill:#f4f4f7" d="M 16.5 1 A 14.5 14.5 0 0 0 2 15.5 A 14.5 14.5 0 0 0 2.0214844 15.919922 A 14.5 14.5 0 0 1 16.5 2 A 14.5 14.5 0 0 1 30.978516 16.080078 A 14.5 14.5 0 0 0 31 15.5 A 14.5 14.5 0 0 0 16.5 1 z M 7.8671875 8.9414062 A 11.5 11.5 0 0 0 7.359375 9.5449219 C 8.1966285 10.072796 8.7952511 10.942298 8.9550781 11.958984 C 8.9751749 11.807214 9 11.657262 9 11.5 C 9 10.483899 8.559889 9.5788888 7.8671875 8.9414062 z M 25.134766 8.9414062 C 24.441681 9.5788167 24 10.483624 24 11.5 C 24 11.657262 24.024825 11.807214 24.044922 11.958984 C 24.204715 10.940313 24.804984 10.07083 25.644531 9.5429688 A 11.5 11.5 0 0 0 25.134766 8.9414062 z M 27.976562 15.958984 A 11.5 11.5 0 0 1 25.970703 22.021484 C 25.337638 21.390394 24.464519 21 23.5 21 C 21.567003 21 20 22.567003 20 24.5 C 20 24.682166 20.018801 24.859296 20.046875 25.033203 C 20.277239 23.323297 21.726982 22 23.5 22 C 24.464519 22 25.337638 22.390394 25.970703 23.021484 A 11.5 11.5 0 0 0 28 16.5 A 11.5 11.5 0 0 0 27.980469 15.958984 C 27.979194 15.95916 27.977838 15.958809 27.976562 15.958984 z M 5.0253906 15.998047 A 11.5 11.5 0 0 0 5 16.5 A 11.5 11.5 0 0 0 7.0390625 23.015625 C 7.6714765 22.389205 8.5395328 22 9.5 22 C 11.272356 22 12.721924 23.322276 12.953125 25.03125 C 12.981225 24.858107 13 24.681464 13 24.5 C 13 22.567003 11.432997 21 9.5 21 C 8.5395328 21 7.6714765 21.389205 7.0390625 22.015625 A 11.5 11.5 0 0 1 5.0253906 15.998047 z M 20.123047 26.394531 A 11.5 11.5 0 0 1 16.5 27 A 11.5 11.5 0 0 1 12.875 26.396484 C 12.789128 26.705039 12.663317 26.997265 12.503906 27.267578 A 11.5 11.5 0 0 0 16.5 28 A 11.5 11.5 0 0 0 20.498047 27.275391 C 20.336372 27.00263 20.209091 26.706697 20.123047 26.394531 z"/>
 <circle style="fill:#454545" cx="16.5" cy="3.5" r="1.5"/>
 <circle style="fill:#454545" cx="5.5" cy="11.5" r="1.5"/>
 <circle style="fill:#454545" cx="27.5" cy="11.5" r="1.5"/>
 <circle style="fill:#454545" cx="23.5" cy="24.5" r="1.5"/>
 <circle style="fill:#454545" cx="9.5" cy="24.5" r="1.5"/>
 <path style="fill:none;stroke:#0bad50;stroke-width:3;stroke-linejoin:bevel" d="m 10.7,11.875 5.8,-2.447 5.8,2.447 M 3,5.5 H 6.35 L 10.7,11.875 16.5,29.492665 22.3,11.875 26.65,5.5 H 30"/>
 <path style="opacity:0.2;fill:none;stroke:#011008;stroke-width:3;stroke-linejoin:bevel" d="m 10.7,12.875278 5.8,-2.447 5.8,2.447 M 3,6.5002775 h 3.35 l 4.35,6.3750005 5.8,17.617665 5.8,-17.617665 4.35,-6.3750005 H 30"/>
 <path style="fill:none;stroke:#0bad50;stroke-width:3;stroke-linejoin:bevel" d="m 10.7,11.875 5.8,-2.447 5.8,2.447 M 3,5.5 H 6.35 L 10.7,11.875 16.5,29.492665 22.3,11.875 26.65,5.5 H 30"/>
 <path style="opacity:0.2;fill:#f4f4f7" d="M 3 4 L 3 5 L 6.3496094 5 L 7.5898438 5.6542969 L 11.248047 11.015625 L 15.916016 9.046875 L 17.083984 9.046875 L 21.751953 11.015625 L 25.410156 5.6542969 L 26.650391 5 L 30 5 L 30 4 L 26.650391 4 L 25.410156 4.6542969 L 21.751953 10.015625 L 17.083984 8.046875 L 15.916016 8.046875 L 11.248047 10.015625 L 7.5898438 4.6542969 L 6.3496094 4 L 3 4 z M 12.845703 13.599609 L 12.556641 13.720703 L 16.5 25.697266 L 20.443359 13.720703 L 20.154297 13.599609 L 16.5 24.697266 L 12.845703 13.599609 z"/>
</svg>

<svg xmlns="http://www.w3.org/2000/svg" width="32" height="32" version="1"><path style="opacity:.2" d="M16.5 2A14.5 14.5 0 0 0 2 16.5 14.5 14.5 0 0 0 16.5 31 14.5 14.5 0 0 0 31 16.5 14.5 14.5 0 0 0 16.5 2zm3.352 3.502a11.5 11.5 0 0 1 5.793 4.041A3.488 3.488 0 0 0 24 12.5a3.5 3.5 0 0 0 3.5 3.5c.164 0 .322-.02.48-.041a11.5 11.5 0 0 1 .02.541 11.5 11.5 0 0 1-2.03 6.521A3.5 3.5 0 0 0 20 25.5c0 .65.189 1.253.498 1.775A11.5 11.5 0 0 1 16.5 28a11.5 11.5 0 0 1-3.996-.732c.307-.52.496-1.12.496-1.768A3.5 3.5 0 0 0 9.5 22c-.96 0-1.829.39-2.46 1.016A11.5 11.5 0 0 1 5 16.5a11.5 11.5 0 0 1 .027-.54c.155.022.312.04.473.04A3.5 3.5 0 0 0 9 12.5a3.488 3.488 0 0 0-1.64-2.955 11.5 11.5 0 0 1 5.79-4.035A3.5 3.5 0 0 0 16.5 8a3.5 3.5 0 0 0 3.352-2.498z"/><path style="fill:#7d7d7d" d="M16.5 1A14.5 14.5 0 0 0 2 15.5 14.5 14.5 0 0 0 16.5 30 14.5 14.5 0 0 0 31 15.5 14.5 14.5 0 0 0 16.5 1zm3.352 3.502a11.5 11.5 0 0 1 5.793 4.041A3.488 3.488 0 0 0 24 11.5a3.5 3.5 0 0 0 3.5 3.5c.164 0 .322-.02.48-.041a11.5 11.5 0 0 1 .02.541 11.5 11.5 0 0 1-2.03 6.521A3.5 3.5 0 0 0 20 24.5c0 .65.189 1.253.498 1.775A11.5 11.5 0 0 1 16.5 27a11.5 11.5 0 0 1-3.996-.732c.307-.52.496-1.12.496-1.768A3.5 3.5 0 0 0 9.5 21c-.96 0-1.829.39-2.46 1.016A11.5 11.5 0 0 1 5 15.5a11.5 11.5 0 0 1 .027-.54c.155.022.312.04.473.04A3.5 3.5 0 0 0 9 11.5a3.488 3.488 0 0 0-1.64-2.955 11.5 11.5 0 0 1 5.79-4.035A3.5 3.5 0 0 0 16.5 7a3.5 3.5 0 0 0 3.352-2.498z"/><path style="opacity:.1;fill:#f4f4f7" d="M16.5 1A14.5 14.5 0 0 0 2 15.5a14.5 14.5 0 0 0 .021.42A14.5 14.5 0 0 1 16.5 2a14.5 14.5 0 0 1 14.479 14.08A14.5 14.5 0 0 0 31 15.5 14.5 14.5 0 0 0 16.5 1zM7.867 8.941a11.5 11.5 0 0 0-.508.604 3.5 3.5 0 0 1 1.596 2.414c.02-.152.045-.302.045-.459 0-1.016-.44-1.921-1.133-2.559zm17.268 0A3.464 3.464 0 0 0 24 11.5c0 .157.025.307.045.459a3.498 3.498 0 0 1 1.6-2.416 11.5 11.5 0 0 0-.51-.602zm2.842 7.018a11.5 11.5 0 0 1-2.006 6.062A3.5 3.5 0 0 0 20 24.5c-.001.182.018.36.046.533a3.49 3.49 0 0 1 5.924-2.012A11.5 11.5 0 0 0 28 16.5a11.5 11.5 0 0 0-.02-.541h-.003zm-22.952.039A11.5 11.5 0 0 0 5 16.5a11.5 11.5 0 0 0 2.04 6.516A3.486 3.486 0 0 1 9.5 22a3.49 3.49 0 0 1 3.453 3.031c.028-.173.047-.35.047-.531A3.5 3.5 0 0 0 9.5 21c-.96 0-1.829.39-2.46 1.016a11.5 11.5 0 0 1-2.015-6.018zm15.098 10.397A11.5 11.5 0 0 1 16.5 27a11.5 11.5 0 0 1-3.625-.604c-.086.309-.212.601-.371.872A11.5 11.5 0 0 0 16.5 28a11.5 11.5 0 0 0 3.998-.725 3.61 3.61 0 0 1-.375-.88z"/><circle style="fill:#454545" cx="16.5" cy="3.5" r="1.5"/><circle style="fill:#454545" cx="5.5" cy="11.5" r="1.5"/><circle style="fill:#454545" cx="27.5" cy="11.5" r="1.5"/><circle style="fill:#454545" cx="23.5" cy="24.5" r="1.5"/><circle style="fill:#454545" cx="9.5" cy="24.5" r="1.5"/><path style="fill:none;stroke:#0bad50;stroke-width:3;stroke-linejoin:bevel" d="m10.7 11.875 5.8-2.447 5.8 2.447M3 5.5h3.35l4.35 6.375 5.8 17.618 5.8-17.618L26.65 5.5H30"/><path style="opacity:.2;fill:none;stroke:#011008;stroke-width:3;stroke-linejoin:bevel" d="m10.7 12.875 5.8-2.447 5.8 2.447M3 6.5h3.35l4.35 6.375 5.8 17.618 5.8-17.618L26.65 6.5H30"/><path style="fill:none;stroke:#0bad50;stroke-width:3;stroke-linejoin:bevel" d="m10.7 11.875 5.8-2.447 5.8 2.447M3 5.5h3.35l4.35 6.375 5.8 17.618 5.8-17.618L26.65 5.5H30"/><path style="opacity:.2;fill:#f4f4f7" d="M3 4v1h3.35l1.24.654 3.658 5.362 4.668-1.97h1.168l4.668 1.97 3.658-5.362L26.65 5H30V4h-3.35l-1.24.654-3.658 5.362-4.668-1.97h-1.168l-4.668 1.97L7.59 4.654 6.35 4H3zm9.846 9.6-.29.12L16.5 25.698l3.943-11.976-.289-.121L16.5 24.697 12.846 13.6z"/></svg>
